.local/share/icons/Gruvbox-Plus-Dark/mimetypes/scalable/application-vnd.wolfram.nb.svg

<svg width="256" height="256" viewBox="0 0 256 256" fill="none" xmlns="http://www.w3.org/2000/svg">
<g opacity="0.4" filter="url(#filter0_f)">
<path d="M55.0839 15.5636H155.608L216.009 75.7129L216.011 224.609C216.011 233.52 208.749 240.737 199.838 240.737H55.0838C46.1734 240.737 39 233.564 39 224.654V31.6474C39 22.737 46.1734 15.5636 55.0838 15.5636H55.0839Z" fill="#282828"/>
</g>
<path d="M55.0839 15H155.608L216.009 75.1493L216.011 224.045C216.011 232.956 208.749 240.174 199.838 240.174H55.0838C46.1734 240.174 39 233 39 224.09V31.0838C39 22.1734 46.1734 15 55.0838 15H55.0839Z" fill="#ebdbb2"/>
<path fill-rule="evenodd" clip-rule="evenodd" d="M155.608 20.3191H55.0839C49.1112 20.3191 44.3191 25.1111 44.3191 31.0838V224.09C44.3191 230.063 49.1111 234.855 55.0838 234.855H199.838C205.83 234.855 210.692 229.999 210.692 224.046V75.1493L155.608 20.3191ZM155.608 15H55.0839C46.1735 15 39 22.1734 39 31.0838V224.09C39 233 46.1734 240.174 55.0838 240.174H199.838C208.749 240.174 216.011 232.956 216.011 224.045L216.009 75.1493L155.608 15Z" fill="url(#paint0_linear)"/>
<path fill-rule="evenodd" clip-rule="evenodd" d="M87.8151 69.5C87.8151 69.5 95.2885 93.5786 90.7266 109.016C86.1646 124.454 63 141.838 63 141.838C63 141.838 93.2862 143.486 104.785 150.835C116.283 158.183 127.975 186.5 127.975 186.5C127.975 186.5 143.501 155.3 149.997 150.835C156.493 146.369 193 141.796 193 141.796C193 141.796 166.307 116.676 164.038 109.668C161.769 102.66 168.193 69.5169 168.193 69.5169C168.193 69.5169 144.169 85.75 127.298 85.75C110.426 85.75 87.8151 69.5 87.8151 69.5ZM146.4 99.8164C146.026 104.299 145.12 107.493 147.551 115C150.251 123.341 153.009 124.961 156.277 128.829C156.675 129.301 157.168 129.768 157.58 130.243C156.853 130.409 156.065 130.518 155.354 130.691C150.358 131.909 146.911 131.92 140.179 136.548C133.447 141.176 132.178 144.497 129.396 148.668C129.039 149.204 128.727 149.812 128.372 150.361C124.912 145.302 120.624 140.383 114.12 136.227C109.102 133.019 104.118 131.248 99.2155 129.87C102.476 125.316 105.483 120.24 107.349 113.925C108.8 109.016 108.995 104.439 109.169 99.918C114.636 101.724 120.606 103.083 127.298 103.083C134.311 103.083 140.656 101.736 146.4 99.8164Z" fill="url(#paint1_linear)"/>
<path opacity="0.25" d="M155.608 17V61.2306C155.608 70.141 162.867 77.1605 171.777 77.1605L216.009 77.1493V75.1493L155.608 17Z" fill="#282828"/>
<path d="M155.608 15V59.2306C155.608 68.141 162.867 75.1605 171.777 75.1605L216.009 75.1493L155.608 15Z" fill="url(#paint2_linear)"/>
<defs>
<filter id="filter0_f" x="23.8778" y="0.441412" width="207.255" height="255.418" filterUnits="userSpaceOnUse" color-interpolation-filters="sRGB">
<feFlood flood-opacity="0" result="BackgroundImageFix"/>
<feBlend mode="normal" in="SourceGraphic" in2="BackgroundImageFix" result="shape"/>
<feGaussianBlur stdDeviation="7.5611" result="effect1_foregroundBlur"/>
</filter>
<linearGradient id="paint0_linear" x1="39" y1="15" x2="39" y2="240.174" gradientUnits="userSpaceOnUse">
<stop offset="1e-07" stop-color="#fb4934"/>
<stop offset="1" stop-color="#cc241d"/>
</linearGradient>
<linearGradient id="paint1_linear" x1="63" y1="69.5" x2="63" y2="186.5" gradientUnits="userSpaceOnUse">
<stop offset="1e-07" stop-color="#fb4934"/>
<stop offset="1" stop-color="#cc241d"/>
</linearGradient>
<linearGradient id="paint2_linear" x1="155.608" y1="15" x2="155.608" y2="75.1605" gradientUnits="userSpaceOnUse">
<stop offset="1e-07" stop-color="#fb4934"/>
<stop offset="1" stop-color="#cc241d"/>
</linearGradient>
</defs>
</svg>

<svg width="256" height="256" fill="none" version="1.1" viewBox="0 0 256 256" xmlns="http://www.w3.org/2000/svg">
  <path d="m55.08 15h100.5l60.4 60.15 2e-3 148.9c0 8.911-7.262 16.13-16.17 16.13h-144.8c-8.91 0-16.08-7.174-16.08-16.08v-193c0-8.91 7.173-16.08 16.08-16.08h1e-4z" fill="#ebdbb2"/>
  <path d="m155.6 20.32h-100.5c-5.973 0-10.76 4.792-10.76 10.76v193c0 5.973 4.792 10.76 10.76 10.76h144.8c5.992 0 10.85-4.856 10.85-10.81v-148.9l-55.08-54.83zm0-5.319h-100.5c-8.91 0-16.08 7.173-16.08 16.08v193c0 8.91 7.173 16.08 16.08 16.08h144.8c8.911 0 16.17-7.218 16.17-16.13l-2e-3 -148.9-60.4-60.15z" clip-rule="evenodd" fill="url(#paint0_linear)" fill-rule="evenodd"/>
  <path d="m87.82 69.5s7.473 24.08 2.912 39.52c-4.562 15.44-27.73 32.82-27.73 32.82s30.29 1.648 41.78 8.997c11.5 7.348 23.19 35.66 23.19 35.66s15.53-31.2 22.02-35.66c6.496-4.466 43-9.039 43-9.039s-26.69-25.12-28.96-32.13 4.155-40.15 4.155-40.15-24.02 16.23-40.9 16.23c-16.87 0-39.48-16.25-39.48-16.25zm58.58 30.32c-0.374 4.483-1.28 7.677 1.151 15.18 2.7 8.341 5.458 9.961 8.726 13.83 0.398 0.472 0.891 0.939 1.303 1.414-0.727 0.166-1.515 0.275-2.226 0.448-4.996 1.218-8.443 1.229-15.18 5.857s-8.001 7.949-10.78 12.12c-0.357 0.536-0.669 1.144-1.024 1.693-3.46-5.059-7.748-9.978-14.25-14.13-5.018-3.208-10-4.979-14.9-6.357 3.26-4.554 6.268-9.63 8.134-15.94 1.451-4.909 1.646-9.486 1.82-14.01 5.467 1.806 11.44 3.165 18.13 3.165 7.013 0 13.36-1.347 19.1-3.267z" clip-rule="evenodd" fill="url(#paint1_linear)" fill-rule="evenodd"/>
  <path d="m155.6 17v44.23c0 8.91 7.259 15.93 16.17 15.93l44.23-0.0112v-2l-60.4-58.15z" fill="#282828" opacity=".25"/>
  <path d="m155.6 15v44.23c0 8.91 7.259 15.93 16.17 15.93l44.23-0.0112-60.4-60.15z" fill="url(#paint2_linear)"/>
  <defs>
    <linearGradient id="paint0_linear" x1="39" x2="39" y1="15" y2="240.2" gradientUnits="userSpaceOnUse">
      <stop stop-color="#fb4934" offset="1e-7"/>
      <stop stop-color="#cc241d" offset="1"/>
    </linearGradient>
    <linearGradient id="paint1_linear" x1="63" x2="63" y1="69.5" y2="186.5" gradientUnits="userSpaceOnUse">
      <stop stop-color="#fb4934" offset="1e-7"/>
      <stop stop-color="#cc241d" offset="1"/>
    </linearGradient>
    <linearGradient id="paint2_linear" x1="155.6" x2="155.6" y1="15" y2="75.16" gradientUnits="userSpaceOnUse">
      <stop stop-color="#fb4934" offset="1e-7"/>
      <stop stop-color="#cc241d" offset="1"/>
    </linearGradient>
  </defs>
</svg>
